X:1
T:James Gibb editions
T:Estote fortes - Marenzio
T:#
%%score [ 1 2 3 4 ]
L:1/8
Q:1/4=108
M:4/4
K:G
V:1 treble nm="Soprano" snm="S"
V:2 treble nm="Alto" snm="A"
V:3 treble-8 nm="Tenor" snm="T"
V:4 bass nm="Bass" snm="B"
V:1
"^Luca Marenzio\n(1553-1599)""^Estote fortes" z4 G4 | B2 B2 d4 | B4 z2 d2 | (BABc d2) G2 | %4
w: E-|sto- te for-|tes in|bel\- * * * * lo,|
 z2 d2 (BcdB | c8 | B4 B4 | B4 B4 | B4 B4 | B4 B4 | A4 d3 c | B2 A2 z2 d2- | dc B2 A2 d2- | %13
w: in bel\- * * *||lo, e-|sto- te|for- tes|in bel-|lo Et pu-|gna- te, et|* pu- gna- te, et|
 dc B2 A2 d2- | d2 d2 dcBA | B4 c2 G2 | (A3 G/F/ G3 F/E/ | FD G3 F/E/ F2) | G8 | z2 G2 B2 B2 | %20
w: * pu- gna- te cum|* an- ti\- * * *|* quo ser-|pen\- * * * * *||te.|E- sto- te|
 d6 A2- | A2 F2 E4 | F2 F2 BABc | d2) B4 d2 | (BABc dc B2) | B4 G3 F | E2 D2 G3 A | B2 A2 d3 c | %28
w: for- tes|* in bel-|lo, in bel\- * * *|* lo in|bel\- * * * * * *|lo et pu-|gna- te, et pu-|gna- te, et pu-|
 B2 A2 d2 d2 | (dcBA B4) | c2 G2 (A3 G/F/ | G3 F/E/ F3 E | FD G3 F/E/ F2) | G8- | G4 z4 | %35
w: gna- te cum an-|ti\- * * * *|quo ser- pen\- * *|||te.||
 B3 B B2 B2 | c4 d2 (d2- | d c B A G4) | A4 B3 B | B2 B2 c4 | d8 | z4 F3 F | F2 F2 G4 | %43
w: Et ac- ci- pi-|e- tis re\-||gnum, et ac-|ci- pi- e-|tís|et ac-|ci- pi- e-|
 A4 z2 (d2- | dcBA GFGA | BA G2) F2 d2 | (cBAG FGAF | G4) D4 | z4 B3 B | B2 B2 c4 | d2 (d3 cBA | %51
w: tis re\-||* * * gnum ae-|ter\- * * * * * * *|* num,|et ac-|ci- pi- e-|tis re\- * * *|
 G2) F4 D2 | A4 A4 ||[M:3/4] A2 B2 A2 | (d3 c/B/ A2) | G2 G2 G2 | (G3 F/E/ D2) | d2 B2 B2 | G4 z2 | %59
w: * gnum ae-|ter- num.|Al- le- lu-|ja, * * *|Al- le- lu-|ja, * * *|Al- le- lu-|ja,|
 B2 c2 B2 | (e3 d/c/ B2) |[M:3/4] B2 G2 B2 | c2 (G3 A | B3 A/G/ F2) | G4 F2 | G6- |[Q:1/4=105] G6 | %67
w: Al- le- lu-|ja, * * *|Al- le- lu-|ja, Al\- *||le- lu-|ja.||
[Q:1/4=99] G6 |[Q:1/4=94] G6 |[Q:1/4=92] G6 |] %70
w: |||
V:2
 D4 E2 E2 | G4 D4 | z2 (D2 B,A,B,C | D2) G,2 z2 D2 | (B,A,B,C D2) G,2 | z2 G2 (EDEF | G2) D2 G4 | %7
w: E- sto- te|for- tes|in bel\- * * *|* lo, in|bel\- * * * * lo,|in bel\- * * *|* lo, e-|
 G4 G4 | G4 G4 | G4 G4 | F4 D2 F2 | G2 F2 z2 D2 | F2 G2 F2 D2 | A2 G2 (D3 E | F4) z2 G2- | %15
w: sto- te|for- tes|in bel-|lo Et pu-|gna- te, et|pu- gna- te et|pu- gna- te *|* cum|
 G2 G2 (GFED | E4) E4 | z2 D2 D4 | D4 z2 D2 | E2 E2 G4 | D2 G2 (FEFG | A8 | A4 z2 D2- | %23
w: * an- ti\- * * *|* quo|ser- pen-|te. E-|sto- te for-|tes in bel\- * * *||lo, in|
 D2 E2 D2 G2 | F4 D4 | G3 F E2 D2 | G3 F E2 D2 | z4 D2 F2 | G2 F2 D2 F2 | G2 D2 G2 G2 | GFED E4) | %31
w: * bel- lo, in|bel- lo|et pu- gna- te,|et pu- gna- te,|et pu-|gna- te, et pu-|gna- te cum an-|ti\- * * * *|
 E4 z2 D2 | D8 | D8- | D4 z4 | D3 D D2 D2 | E4 F2 (F2 | FEDC B,G, G2- | GF/E/ F2) G4- | G4 z4 | %40
w: quo ser-|pen-|te.||Et ac- ci- pi-|e- tis re\-||* * * * gnum,||
 F3 F F2 F2 | G4 A2 (D2- | DCB,A, G,A,B,G, | D2 A,2 D3 D | D2 D2 E4 | F2 (B3 AGF | E4) D2 D2 | %47
w: et ac- ci- pi-|e- tis re\-||* gnum, et ac-|ci- pi- e-|tis re\- * * *|* gnum ae-|
 D4 G4 | z4 D3 D | D2 D2 E4 | F2 F3 E D2- | D2) D2 F2 (G2- | GF F2) E4 ||[M:3/4] F2 G2 F2- | %54
w: ter- num,|et ac-|ci- pi- e-|tis re\- * *|* gnum ae- ter\-|* * * num.|Al- le- lu-|
 (B3 A/G/ F2) | D2 E2 D2 | C4 z2 | F2 G2 F2 | (B3 A/G/ F2) | G2 G2 G2 | (CDEF G2) | %61
w: ja, * * *|Al- le- lu-|ja,|Al- le- lu-|ja, * * *|Al- le- lu-|ja, * * * *|
[M:3/4] D2 E2 D2 | (G3 F/E/ D2) | D4 D2 | D2 D4 | D2 E2 D2 | (G3 F/E/ D2) | B,4 B,2- | B,2 E4 | %69
w: Al- le- lu-|ja, * * *|Al- le-|lu- ja,|Al- le- lu-|ja, * * *|Al- le\-|* lu-|
 D6 |] %70
w: ja.|
V:3
 z8 | G4 B2 B2 | d4 d4 | z2 d2 (BABc | d2) G2 z2 d2 | (edef g4) | G2 B2 (GFGA | B2) G4 d2- | %8
w: |E- sto- te|for- tes|in bel\- * * *|* lo, in|bel\- * * * *|lo in bel\- * * *|* lo, in|
 d2 (GABc d2) | e2 e2 (dcBc | d2 A2 z4 | z2 d3 c B2 | A2 d3 c B2 | F2 d3 c B2 | A4 B2 d2- | %15
w: * bel\- * * * *|lo, in bel\- * * *|* lo|Et pu- gna-|te, et pu- gna-|te, et pu- gna-|te cum an\-|
 d2 e3 dcB | c4) B2 c2 | (d3 c/B/ A4) | G8 | z4 z2 G2 | B2 B2 d4 | A2 (d3 ^c/B/ c2) | d4 d2 B2 | %23
w: * ti\- * * *|* quo ser-|pen\- * * *|te.|E-|sto- te for-|tes in * * *|bel- lo, in|
 (GFGA B2) G2 | d2 (BABc d2- | d2) G2 c2 B2 | c2 (G3 A B2) | d3 c B2 A2 | d3 c B2 A2 | B4 d2 (e2- | %30
w: bel\- * * * * lo,|in bel\- * * * *|* lo et pu-|gna- te, * *|et pu- gna- te,|et pu- gna- te|cum an- ti\-|
 edcB c4) | B2 c2 (d3 c/B/ | AF BA/G/ A4) | G4 B3 B | B2 B2 c4 | G4 G4- | G4 A2 A2 | B6 B2 | %38
w: |quo ser- pen\- * *||te. Et ac-|ci- pi- e-|tis re\-|* gnum ae-|ter- num,|
 d3 d d2 d2 | e8 | d4 (Bcdc | BA G2) d2 A2 | (d3 c BA G2- | G2 F2 B3 B | B2 B2 c4 | d2 (d3 cBA | %46
w: et ac- ci- pi-|e-|tis re- * * *|* * * gnum ae-|ter\- * * * *|* num, et ac-|ci- pi- e-|tis re\- * * *|
 GF E2) A4 | B3 B B2 B2 | c4 G4 | G8 | A2 F4 G2- | GABc d3 B | ^c2 d3 c/B/ c2) || %53
w: * * * gnum|et ac- ci- pi-|e- tis|re-|gnum ae- ter\-|||
[M:3/4][K:treble-8] d6- | d4 z2 | B2 c2 B2 | (e3 d/c/ B2) | d2 d2 d2 | (GABc d2) | B2 e2 e2 | %60
w: num.||Al- le- lu-|ja, * * *|Al- le- lu-|ja, * * * *|Al- le- lu-|
 e4 z2 |[M:3/4][K:treble-8] B2 c2 B2 | (e3 d/c/ B2) | B4 B2 | B2 A4 | B2 c2 B2 | (e3 d/c/ B2) | %67
w: ja,|Al- le- lu-|ja, * * *|Al- le-|lu- ja,|Al- le- lu-|ja, * * *|
 d4 d2- | d2 c4 | B6 |] %70
w: Al- le\-|* lu-|ja.|
V:4
 z8 | z4 G,4 | G,4 G,4 | G,4 G,4 | G,4 G,4 | C,8 | z2 G,2 (E,D,E,F, | G,2) E,2 B,2 (G,F, | %8
w: |E-|sto- te|for- tes|in bel-|lo,|in bel\- * * *|* lo, in bel\- *|
 G,A, B,2) G,2 G,2 | (E,D,E,F, G,4) | D,4 z4 | z2 D,2 F,2 G,2 | D,2 G,,2 D,2 G,,2 | %13
w: * * * lo, in|bel\- * * * *|lo|Et pu- gna-|te, et pu- gna-|
 D,2 G,2 F,2 G,2 | D,4 G,2 G,2 | (G,F,E,D, C,4) | C,2 D,2 (E,3 D,/C,/ | B,,3 C, D,4) | %18
w: te, et pu- gna-|te cum an-|ti\- * * * *|quo ser- pen\- * *||
 G,,2 G,2 B,2 B,2 | C4 G,4- | G,4 D,4 | F,2 F,2 A,4 | D,2 D,2 (G,F,G,A, | B,2) G,2 G,2 (B,A, | %24
w: te. E- sto- te|for- tes,|* e-|sto- te for-|tes in bel\- * * *|* lo, in bel\- *|
 B,C D2) G,4 | G,2 B,2 C2 G,2 | C,2 B,,2 C,2 G,,2 | G,2 F,2 G,2 D,2 | G,,2 D,2 G,,2 D,2 | %29
w: * * * lo|et pu- gna- te,|et pu- gna- te,|et pu- gna- te,|et pu- gna- te|
 G,2 G,2 (G,F,E,D, | C,4) C,2 D,2 | (E,3 D,/C,/ B,,3 C, | D,8) | G,,4 G,3 G, | G,2 G,2 A,4 | %35
w: cum an- ti\- * * *|* quo ser-|pen\- * * * *||te. Et ac-|ci- pi- e-|
 B,2 (B,3 A,G,F, | E,4) D,4 | B,,4 E,4 | D,4 G,3 G, | G,2 G,2 A,4 | B,2 (D3 CB,A, | G,F, E,2) D,4 | %42
w: tis re\- * * *|* gnum|ae- ter-|num, et ac-|ci- pi- e-|tis re\- * * *|* * * gnum|
 B,,4 E,4 | D,4 z4 | z8 | B,,3 B,, B,,2 B,,2 | C,4 D,4 | G,3 G, G,2 G,2 | A,4 B,2 (B,2- | %49
w: ae- ter-|num,||et ac- ci- pi-|e- tis|et ac- ci- pi-|e- tis re\-|
 B,A,G,F, E,4) | D,4 B,,4 | B,8 | A,8 ||[M:3/4] D,2 B,,2 D,2- | (G,,A,,B,,C, D,2) | G,2 E,2 G,2 | %56
w: |gnum ae-|ter-|num.|Al- le- lu-|ja, * * * *|Al- le- lu-|
 (C,D,E,F, G,2) | B,2 G,2 B,2 | (E,F,G,A, B,2) | E,2 C,2 E,2 | (A,,B,,C,D, E,2) | %61
w: ja, * * * *|Al- le- lu-|ja, * * * *|Al- le- lu-|ja, * * * *|
[M:3/4] G,2 E,2 G,2 | (C,D,E,F, G,2) | G,,4 B,,2 | B,,2 D,4 | G,2 E,2 G,2 | (C,D,E,F, G,2) | %67
w: Al- le- lu-|ja, * * * *|Al- le-|lu- ja,|Al- le- lu-|ja, * * * *|
 G,,4 B,,2- | B,,2 C,4 | G,,6 |] %70
w: Al- le\-|* lu-|ja.|

